; generated by Slic3r 1.3.0 on 2020-02-19 at 21:54:00

; external perimeters extrusion width = 0.44mm (2.38mm^3/s)
; perimeters extrusion width = 0.56mm (6.20mm^3/s)
; infill extrusion width = 0.50mm (5.48mm^3/s)
; solid infill extrusion width = 0.56mm (6.20mm^3/s)
; top infill extrusion width = 0.56mm (3.10mm^3/s)

M190 S75 ; set bed temperature and wait for it to be reached
M104 S215;
G90;
G28;
G1 X0 Z0;
M420 S0;
M109 S215;
G1 X0.0 Y0.0 Z0.2 F1000.0;
G1 X60.0  E9 F500.0;
G1 X100.0 E12.5 F500.0;

G21 ; set units to millimeters
G90 ; use absolute coordinates
M82 ; use absolute distances for extrusion
G92 E0
G1 Z0.200 F3600.000
G1 E-2.00000 F2400.00000
G92 E0
G1 X91.385 Y92.478 F3600.000
G1 E2.00000 F2400.00000
G1 F1800
G1 X93.151 Y90.907 E2.10163
G1 X95.338 Y90.011 E2.20326
G1 X96.875 Y89.841 E2.26973
G1 X103.125 Y89.841 E2.53845
G1 X105.455 Y90.238 E2.64008
G1 X107.522 Y91.385 E2.74171
G1 X109.093 Y93.151 E2.84334
G1 X109.989 Y95.338 E2.94498
G1 X110.159 Y96.875 E3.01145
G1 X110.159 Y103.125 E3.28017
G1 X109.762 Y105.455 E3.38180
G1 X108.615 Y107.522 E3.48343
G1 X106.849 Y109.093 E3.58506
G1 X104.662 Y109.989 E3.68669
G1 X103.125 Y110.159 E3.75316
G1 X96.875 Y110.159 E4.02188
G1 X94.545 Y109.762 E4.12351
G1 X92.478 Y108.615 E4.22514
G1 X90.907 Y106.849 E4.32677
G1 X90.011 Y104.662 E4.42840
G1 X89.841 Y103.125 E4.49488
G1 X89.841 Y96.875 E4.76360
G1 X90.238 Y94.545 E4.86523
G1 X91.356 Y92.530 E4.96428
G1 X91.897 Y92.668 F3600.000
G1 F1800
G1 X93.646 Y91.214 E5.06207
G1 X96.875 Y90.358 E5.20570
G1 X103.125 Y90.358 E5.47442
G1 X105.365 Y90.755 E5.57222
G1 X107.332 Y91.897 E5.67001
G1 X108.786 Y93.646 E5.76781
G1 X109.642 Y96.875 E5.91143
G1 X109.642 Y103.125 E6.18015
G1 X109.245 Y105.365 E6.27795
G1 X108.103 Y107.332 E6.37575
G1 X106.354 Y108.786 E6.47354
G1 X103.125 Y109.642 E6.61717
G1 X96.875 Y109.642 E6.88589
G1 X94.635 Y109.245 E6.98368
G1 X92.668 Y108.103 E7.08148
G1 X91.214 Y106.354 E7.17928
G1 X90.358 Y103.125 E7.32290
G1 X90.358 Y96.875 E7.59162
G1 X90.755 Y94.635 E7.68942
G1 X91.867 Y92.720 E7.78463
G1 E5.78463 F2400.00000
G92 E0
G1 X102.448 Y102.448 F3600.000
G1 E2.00000 F2400.00000
G1 F1800
G1 X97.552 Y102.448 E2.21050
G1 X97.552 Y97.552 E2.42100
G1 X102.448 Y97.552 E2.63150
G1 X102.448 Y102.388 E2.83941
G1 X102.905 Y102.905 F3600.000
G1 F1800
G1 X97.095 Y102.905 E3.03124
G1 X97.095 Y97.095 E3.22308
G1 X102.905 Y97.095 E3.41491
G1 X102.905 Y102.845 E3.60476
G1 X102.519 Y102.801 F3600.000
G1 X101.730 Y102.132 F3600.000
G1 F1800
G1 X102.132 Y101.730 E3.63059
G1 X102.132 Y100.957 E3.66566
G1 X100.957 Y102.132 E3.74110
G1 X100.185 Y102.132 E3.77617
G1 X102.132 Y100.185 E3.90120
G1 X102.132 Y99.413 E3.93627
G1 X99.413 Y102.132 E4.11090
G1 X98.640 Y102.132 E4.14597
G1 X102.132 Y98.640 E4.37019
G1 X102.132 Y97.868 E4.40526
G1 X97.868 Y102.132 E4.67908
G1 X97.868 Y101.360 E4.71415
G1 X101.360 Y97.868 E4.93838
G1 X100.587 Y97.868 E4.97345
G1 X97.868 Y100.587 E5.14808
G1 X97.868 Y99.815 E5.18315
G1 X99.815 Y97.868 E5.30818
G1 X99.043 Y97.868 E5.34325
G1 X97.868 Y99.043 E5.41868
G1 X97.868 Y98.270 E5.45375
G1 X98.270 Y97.868 E5.47959
M106 S255
M104 S195 ; set temperature
M140 S60 ; set bed temperature
G1 Z0.400 F3600.000
G1 X102.448 Y102.448 F3600.000
G1 F900
G1 X97.552 Y102.448 E5.69009
G1 X97.552 Y97.552 E5.90059
G1 X102.448 Y97.552 E6.11109
G1 X102.448 Y102.388 E6.31901
G1 X102.905 Y102.905 F3600.000
G1 F900
G1 X97.095 Y102.905 E6.51084
G1 X97.095 Y97.095 E6.70267
G1 X102.905 Y97.095 E6.89450
G1 X102.905 Y102.845 E7.08435
G1 X102.519 Y102.801 F3600.000
G1 X102.132 Y98.270 F3600.000
G1 F3600
G1 X101.730 Y97.868 E7.11019
G1 X100.957 Y97.868 E7.14526
G1 X102.132 Y99.043 E7.22069
G1 X102.132 Y99.815 E7.25576
G1 X100.185 Y97.868 E7.38079
G1 X99.413 Y97.868 E7.41586
G1 X102.132 Y100.587 E7.59049
G1 X102.132 Y101.360 E7.62556
G1 X98.640 Y97.868 E7.84978
G1 X97.868 Y97.868 E7.88485
G1 X102.132 Y102.132 E8.15868
G1 X101.360 Y102.132 E8.19375
G1 X97.868 Y98.640 E8.41797
G1 X97.868 Y99.413 E8.45304
G1 X100.587 Y102.132 E8.62767
G1 X99.815 Y102.132 E8.66274
G1 X97.868 Y100.185 E8.78777
G1 X97.868 Y100.957 E8.82284
G1 X99.043 Y102.132 E8.89828
G1 X98.270 Y102.132 E8.93335
G1 X97.868 Y101.730 E8.95919
G1 Z0.600 F3600.000
G1 X102.448 Y102.448 F3600.000
G1 F900
G1 X97.552 Y102.448 E9.16969
G1 X97.552 Y97.552 E9.38018
G1 X102.448 Y97.552 E9.59068
G1 X102.448 Y102.388 E9.79860
G1 X102.905 Y102.905 F3600.000
G1 F900
G1 X97.095 Y102.905 E9.99043
G1 X97.095 Y97.095 E10.18226
G1 X102.905 Y97.095 E10.37409
G1 X102.905 Y102.845 E10.56394
G1 X102.519 Y102.801 F3600.000
G1 X101.730 Y102.132 F3600.000
G1 F3600
G1 X102.132 Y101.730 E10.58978
G1 X102.132 Y100.957 E10.62485
G1 X100.957 Y102.132 E10.70028
G1 X100.185 Y102.132 E10.73535
G1 X102.132 Y100.185 E10.86039
G1 X102.132 Y99.413 E10.89546
G1 X99.413 Y102.132 E11.07008
G1 X98.640 Y102.132 E11.10515
G1 X102.132 Y98.640 E11.32938
G1 X102.132 Y97.868 E11.36445
G1 X97.868 Y102.132 E11.63827
G1 X97.868 Y101.360 E11.67334
G1 X101.360 Y97.868 E11.89757
G1 X100.587 Y97.868 E11.93264
G1 X97.868 Y100.587 E12.10726
G1 X97.868 Y99.815 E12.14233
G1 X99.815 Y97.868 E12.26737
G1 X99.043 Y97.868 E12.30244
G1 X97.868 Y99.043 E12.37787
G1 X97.868 Y98.270 E12.41294
G1 X98.270 Y97.868 E12.43878
G1 Z0.800 F3600.000
G1 X102.448 Y102.448 F3600.000
G1 F900
G1 X97.552 Y102.448 E12.64928
G1 X97.552 Y97.552 E12.85978
G1 X102.448 Y97.552 E13.07027
G1 X102.448 Y102.388 E13.27819
G1 X102.905 Y102.905 F3600.000
G1 F900
G1 X97.095 Y102.905 E13.47002
G1 X97.095 Y97.095 E13.66185
G1 X102.905 Y97.095 E13.85369
G1 X102.905 Y102.845 E14.04354
G1 X102.519 Y102.801 F3600.000
G1 X102.132 Y98.270 F3600.000
G1 F3600
G1 X101.730 Y97.868 E14.06937
G1 X100.957 Y97.868 E14.10444
G1 X102.132 Y99.043 E14.17988
G1 X102.132 Y99.815 E14.21495
G1 X100.185 Y97.868 E14.33998
G1 X99.413 Y97.868 E14.37505
G1 X102.132 Y100.587 E14.54968
G1 X102.132 Y101.360 E14.58475
G1 X98.640 Y97.868 E14.80897
G1 X97.868 Y97.868 E14.84404
G1 X102.132 Y102.132 E15.11786
G1 X101.360 Y102.132 E15.15293
G1 X97.868 Y98.640 E15.37716
G1 X97.868 Y99.413 E15.41223
G1 X100.587 Y102.132 E15.58686
G1 X99.815 Y102.132 E15.62193
G1 X97.868 Y100.185 E15.74696
G1 X97.868 Y100.957 E15.78203
G1 X99.043 Y102.132 E15.85746
G1 X98.270 Y102.132 E15.89254
G1 X97.868 Y101.730 E15.91837
G1 Z1.000 F3600.000
G1 X102.448 Y102.448 F3600.000
G1 F900
G1 X97.552 Y102.448 E16.12887
G1 X97.552 Y97.552 E16.33937
G1 X102.448 Y97.552 E16.54987
G1 X102.448 Y102.388 E16.75779
G1 X102.905 Y102.905 F3600.000
G1 F900
G1 X97.095 Y102.905 E16.94962
G1 X97.095 Y97.095 E17.14145
G1 X102.905 Y97.095 E17.33328
G1 X102.905 Y102.845 E17.52313
G1 X102.519 Y102.801 F3600.000
G1 X101.730 Y102.132 F3600.000
G1 F3600
G1 X102.132 Y101.730 E17.54897
G1 X102.132 Y100.957 E17.58404
G1 X100.957 Y102.132 E17.65947
G1 X100.185 Y102.132 E17.69454
G1 X102.132 Y100.185 E17.81957
G1 X102.132 Y99.413 E17.85464
G1 X99.413 Y102.132 E18.02927
G1 X98.640 Y102.132 E18.06434
G1 X102.132 Y98.640 E18.28856
G1 X102.132 Y97.868 E18.32363
G1 X97.868 Y102.132 E18.59745
G1 X97.868 Y101.360 E18.63252
G1 X101.360 Y97.868 E18.85674
G1 X100.587 Y97.868 E18.89181
G1 X97.868 Y100.587 E19.06644
G1 X97.868 Y99.815 E19.10151
G1 X99.815 Y97.868 E19.22654
G1 X99.043 Y97.868 E19.26161
G1 X97.868 Y99.043 E19.33704
G1 X97.868 Y98.270 E19.37211
G1 X98.270 Y97.868 E19.39795
G1 Z1.200 F3600.000
G1 X102.448 Y102.448 F3600.000
G1 F900
G1 X97.552 Y102.448 E19.60845
G1 X97.552 Y97.552 E19.81895
G1 X102.448 Y97.552 E20.02945
G1 X102.448 Y102.388 E20.23736
G1 X102.905 Y102.905 F3600.000
G1 F900
G1 X97.095 Y102.905 E20.42919
G1 X97.095 Y97.095 E20.62103
G1 X102.905 Y97.095 E20.81286
G1 X102.905 Y102.845 E21.00271
G1 X102.519 Y102.801 F3600.000
G1 X102.132 Y98.270 F3600.000
G1 F3600
G1 X101.730 Y97.868 E21.02854
G1 X100.957 Y97.868 E21.06361
G1 X102.132 Y99.043 E21.13905
G1 X102.132 Y99.815 E21.17412
G1 X100.185 Y97.868 E21.29915
G1 X99.413 Y97.868 E21.33422
G1 X102.132 Y100.587 E21.50884
G1 X102.132 Y101.360 E21.54391
G1 X98.640 Y97.868 E21.76814
G1 X97.868 Y97.868 E21.80321
G1 X102.132 Y102.132 E22.07703
G1 X101.360 Y102.132 E22.11210
G1 X97.868 Y98.640 E22.33632
G1 X97.868 Y99.413 E22.37139
G1 X100.587 Y102.132 E22.54602
G1 X99.815 Y102.132 E22.58109
G1 X97.868 Y100.185 E22.70612
G1 X97.868 Y100.957 E22.74119
G1 X99.043 Y102.132 E22.81662
G1 X98.270 Y102.132 E22.85169
G1 X97.868 Y101.730 E22.87753
G1 Z1.400 F3600.000
G1 X102.448 Y102.448 F3600.000
G1 F900
G1 X97.552 Y102.448 E23.08803
G1 X97.552 Y97.552 E23.29852
G1 X102.448 Y97.552 E23.50902
G1 X102.448 Y102.388 E23.71694
G1 X102.905 Y102.905 F3600.000
G1 F900
G1 X97.095 Y102.905 E23.90877
G1 X97.095 Y97.095 E24.10060
G1 X102.905 Y97.095 E24.29243
G1 X102.905 Y102.845 E24.48228
G1 X102.519 Y102.801 F3600.000
G1 X101.730 Y102.132 F3600.000
G1 F3600
G1 X102.132 Y101.730 E24.50812
G1 X102.132 Y100.957 E24.54319
G1 X100.957 Y102.132 E24.61862
G1 X100.185 Y102.132 E24.65369
G1 X102.132 Y100.185 E24.77872
G1 X102.132 Y99.413 E24.81379
G1 X99.413 Y102.132 E24.98842
G1 X98.640 Y102.132 E25.02349
G1 X102.132 Y98.640 E25.24771
G1 X102.132 Y97.868 E25.28278
G1 X97.868 Y102.132 E25.55660
G1 X97.868 Y101.360 E25.59167
G1 X101.360 Y97.868 E25.81590
G1 X100.587 Y97.868 E25.85097
G1 X97.868 Y100.587 E26.02559
G1 X97.868 Y99.815 E26.06066
G1 X99.815 Y97.868 E26.18569
G1 X99.043 Y97.868 E26.22076
G1 X97.868 Y99.043 E26.29620
G1 X97.868 Y98.270 E26.33127
G1 X98.270 Y97.868 E26.35710
G1 Z1.600 F3600.000
G1 X102.448 Y102.448 F3600.000
G1 F900
G1 X97.552 Y102.448 E26.56760
G1 X97.552 Y97.552 E26.77810
G1 X102.448 Y97.552 E26.98860
G1 X102.448 Y102.388 E27.19652
G1 X102.905 Y102.905 F3600.000
G1 F900
G1 X97.095 Y102.905 E27.38835
G1 X97.095 Y97.095 E27.58018
G1 X102.905 Y97.095 E27.77201
G1 X102.905 Y102.845 E27.96186
G1 X102.519 Y102.801 F3600.000
G1 X102.132 Y98.270 F3600.000
G1 F3600
G1 X101.730 Y97.868 E27.98770
G1 X100.957 Y97.868 E28.02277
G1 X102.132 Y99.043 E28.09820
G1 X102.132 Y99.815 E28.13327
G1 X100.185 Y97.868 E28.25830
G1 X99.413 Y97.868 E28.29337
G1 X102.132 Y100.587 E28.46800
G1 X102.132 Y101.360 E28.50307
G1 X98.640 Y97.868 E28.72729
G1 X97.868 Y97.868 E28.76236
G1 X102.132 Y102.132 E29.03618
G1 X101.360 Y102.132 E29.07125
G1 X97.868 Y98.640 E29.29547
G1 X97.868 Y99.413 E29.33054
G1 X100.587 Y102.132 E29.50517
G1 X99.815 Y102.132 E29.54024
G1 X97.868 Y100.185 E29.66527
G1 X97.868 Y100.957 E29.70034
G1 X99.043 Y102.132 E29.77577
G1 X98.270 Y102.132 E29.81084
G1 X97.868 Y101.730 E29.83668
G1 Z1.800 F3600.000
G1 X102.448 Y102.448 F3600.000
G1 F900
G1 X97.552 Y102.448 E30.04718
G1 X97.552 Y97.552 E30.25768
G1 X102.448 Y97.552 E30.46818
G1 X102.448 Y102.388 E30.67610
G1 X102.905 Y102.905 F3600.000
G1 F900
G1 X97.095 Y102.905 E30.86793
G1 X97.095 Y97.095 E31.05976
G1 X102.905 Y97.095 E31.25159
G1 X102.905 Y102.845 E31.44144
G1 X102.519 Y102.801 F3600.000
G1 X101.730 Y102.132 F3600.000
G1 F3600
G1 X102.132 Y101.730 E31.46727
G1 X102.132 Y100.957 E31.50234
G1 X100.957 Y102.132 E31.57778
G1 X100.185 Y102.132 E31.61285
G1 X102.132 Y100.185 E31.73788
G1 X102.132 Y99.413 E31.77295
G1 X99.413 Y102.132 E31.94757
G1 X98.640 Y102.132 E31.98264
G1 X102.132 Y98.640 E32.20687
G1 X102.132 Y97.868 E32.24194
G1 X97.868 Y102.132 E32.51576
G1 X97.868 Y101.360 E32.55083
G1 X101.360 Y97.868 E32.77505
G1 X100.587 Y97.868 E32.81012
G1 X97.868 Y100.587 E32.98475
G1 X97.868 Y99.815 E33.01982
G1 X99.815 Y97.868 E33.14485
G1 X99.043 Y97.868 E33.17992
G1 X97.868 Y99.043 E33.25535
G1 X97.868 Y98.270 E33.29042
G1 X98.270 Y97.868 E33.31626
G1 Z2.000 F3600.000
G1 X102.448 Y102.448 F3600.000
G1 F900
G1 X97.552 Y102.448 E33.52676
G1 X97.552 Y97.552 E33.73726
G1 X102.448 Y97.552 E33.94775
G1 X102.448 Y102.388 E34.15567
G1 X102.905 Y102.905 F3600.000
G1 F900
G1 X97.095 Y102.905 E34.34750
G1 X97.095 Y97.095 E34.53933
G1 X102.905 Y97.095 E34.73116
G1 X102.905 Y102.845 E34.92101
G1 X102.519 Y102.801 F3600.000
G1 X102.132 Y98.270 F3600.000
G1 F3600
G1 X101.730 Y97.868 E34.94685
G1 X100.957 Y97.868 E34.98192
G1 X102.132 Y99.043 E35.05735
G1 X102.132 Y99.815 E35.09242
G1 X100.185 Y97.868 E35.21745
G1 X99.413 Y97.868 E35.25252
G1 X102.132 Y100.587 E35.42715
G1 X102.132 Y101.360 E35.46222
G1 X98.640 Y97.868 E35.68644
G1 X97.868 Y97.868 E35.72151
G1 X102.132 Y102.132 E35.99533
G1 X101.360 Y102.132 E36.03040
G1 X97.868 Y98.640 E36.25463
G1 X97.868 Y99.413 E36.28970
G1 X100.587 Y102.132 E36.46432
G1 X99.815 Y102.132 E36.49939
G1 X97.868 Y100.185 E36.62442
G1 X97.868 Y100.957 E36.65949
G1 X99.043 Y102.132 E36.73493
G1 X98.270 Y102.132 E36.77000
G1 X97.868 Y101.730 E36.79584
G1 Z2.200 F3600.000
G1 X102.448 Y102.448 F3600.000
G1 F900
G1 X97.552 Y102.448 E37.00633
G1 X97.552 Y97.552 E37.21683
G1 X102.448 Y97.552 E37.42733
G1 X102.448 Y102.388 E37.63525
G1 X102.905 Y102.905 F3600.000
G1 F900
G1 X97.095 Y102.905 E37.82708
G1 X97.095 Y97.095 E38.01891
G1 X102.905 Y97.095 E38.21074
G1 X102.905 Y102.845 E38.40059
G1 X102.519 Y102.801 F3600.000
G1 X101.730 Y102.132 F3600.000
G1 F3600
G1 X102.132 Y101.730 E38.42643
G1 X102.132 Y100.957 E38.46150
G1 X100.957 Y102.132 E38.53693
G1 X100.185 Y102.132 E38.57200
G1 X102.132 Y100.185 E38.69703
G1 X102.132 Y99.413 E38.73210
G1 X99.413 Y102.132 E38.90673
G1 X98.640 Y102.132 E38.94180
G1 X102.132 Y98.640 E39.16602
G1 X102.132 Y97.868 E39.20109
G1 X97.868 Y102.132 E39.47491
G1 X97.868 Y101.360 E39.50998
G1 X101.360 Y97.868 E39.73420
G1 X100.587 Y97.868 E39.76927
G1 X97.868 Y100.587 E39.94390
G1 X97.868 Y99.815 E39.97897
G1 X99.815 Y97.868 E40.10400
G1 X99.043 Y97.868 E40.13907
G1 X97.868 Y99.043 E40.21451
G1 X97.868 Y98.270 E40.24958
G1 X98.270 Y97.868 E40.27541
G1 Z2.400 F3600.000
G1 X102.448 Y102.448 F3600.000
G1 F900
G1 X97.552 Y102.448 E40.48591
G1 X97.552 Y97.552 E40.69641
G1 X102.448 Y97.552 E40.90691
G1 X102.448 Y102.388 E41.11483
G1 X102.905 Y102.905 F3600.000
G1 F900
G1 X97.095 Y102.905 E41.30666
G1 X97.095 Y97.095 E41.49849
G1 X102.905 Y97.095 E41.69032
G1 X102.905 Y102.845 E41.88017
G1 X102.519 Y102.801 F3600.000
G1 X102.132 Y98.270 F3600.000
G1 F3600
G1 X101.730 Y97.868 E41.90601
G1 X100.957 Y97.868 E41.94108
G1 X102.132 Y99.043 E42.01651
G1 X102.132 Y99.815 E42.05158
G1 X100.185 Y97.868 E42.17661
G1 X99.413 Y97.868 E42.21168
G1 X102.132 Y100.587 E42.38631
G1 X102.132 Y101.360 E42.42138
G1 X98.640 Y97.868 E42.64560
G1 X97.868 Y97.868 E42.68067
G1 X102.132 Y102.132 E42.95449
G1 X101.360 Y102.132 E42.98956
G1 X97.868 Y98.640 E43.21378
G1 X97.868 Y99.413 E43.24885
G1 X100.587 Y102.132 E43.42348
G1 X99.815 Y102.132 E43.45855
G1 X97.868 Y100.185 E43.58358
G1 X97.868 Y100.957 E43.61865
G1 X99.043 Y102.132 E43.69408
G1 X98.270 Y102.132 E43.72915
G1 X97.868 Y101.730 E43.75499
G1 Z2.600 F3600.000
G1 X102.448 Y102.448 F3600.000
G1 F900
G1 X97.552 Y102.448 E43.96549
G1 X97.552 Y97.552 E44.17599
G1 X102.448 Y97.552 E44.38649
G1 X102.448 Y102.388 E44.59440
G1 X102.905 Y102.905 F3600.000
G1 F900
G1 X97.095 Y102.905 E44.78623
G1 X97.095 Y97.095 E44.97807
G1 X102.905 Y97.095 E45.16990
G1 X102.905 Y102.845 E45.35975
G1 X102.519 Y102.801 F3600.000
G1 X101.730 Y102.132 F3600.000
G1 F3600
G1 X102.132 Y101.730 E45.38558
G1 X102.132 Y100.957 E45.42065
G1 X100.957 Y102.132 E45.49609
G1 X100.185 Y102.132 E45.53116
G1 X102.132 Y100.185 E45.65619
G1 X102.132 Y99.413 E45.69126
G1 X99.413 Y102.132 E45.86588
G1 X98.640 Y102.132 E45.90095
G1 X102.132 Y98.640 E46.12518
G1 X102.132 Y97.868 E46.16025
G1 X97.868 Y102.132 E46.43407
G1 X97.868 Y101.360 E46.46914
G1 X101.360 Y97.868 E46.69336
G1 X100.587 Y97.868 E46.72843
G1 X97.868 Y100.587 E46.90306
G1 X97.868 Y99.815 E46.93813
G1 X99.815 Y97.868 E47.06316
G1 X99.043 Y97.868 E47.09823
G1 X97.868 Y99.043 E47.17366
G1 X97.868 Y98.270 E47.20873
G1 X98.270 Y97.868 E47.23457
G1 Z2.800 F3600.000
G1 X102.448 Y102.448 F3600.000
G1 F900
G1 X97.552 Y102.448 E47.44506
G1 X97.552 Y97.552 E47.65556
G1 X102.448 Y97.552 E47.86606
G1 X102.448 Y102.388 E48.07398
G1 X102.905 Y102.905 F3600.000
G1 F900
G1 X97.095 Y102.905 E48.26581
G1 X97.095 Y97.095 E48.45764
G1 X102.905 Y97.095 E48.64947
G1 X102.905 Y102.845 E48.83932
G1 X102.519 Y102.801 F3600.000
G1 X102.132 Y98.270 F3600.000
G1 F3600
